icon/gr/text-wrap.svg

<svg xmlns="http://www.w3.org/2000/svg" width="24" height="24"><path fill="none" stroke="#000" stroke-width="2" d="M17 10h7-7ZM1 14h13V2H1v12Zm5-8a1 1 0 1 1-2 0 1 1 0 0 1 2 0m11 0h7-7Zm0-4h7-7Zm0 12h7-7ZM0 18h24H0Zm0 4h24H0Zm14-8v-1l-4-5-3 3-1-1-4 4h12Z"/></svg>

<svg xmlns="http://www.w3.org/2000/svg" viewBox="0 0 24 24" height="1em" width="1em">
  <path fill="none" stroke="#000" stroke-width="2" d="M17,10 L24,10 L17,10 L17,10 Z M1,14 L14,14 L14,2 L1,2 L1,14 Z M6,6 C6,6.5525 5.5525,7 5,7 C4.4475,7 4,6.5525 4,6 C4,5.4475 4.4475,5 5,5 C5.5525,5 6,5.4475 6,6 M17,6 L24,6 L17,6 L17,6 Z M17,2 L24,2 L17,2 L17,2 Z M17,14 L24,14 L17,14 L17,14 Z M0,18 L24,18 L0,18 L0,18 Z M0,22 L24,22 L0,22 L0,22 Z M14,14 L14,13 L10,8 L7,11 L6,10 L2,14 L14,14 Z"/>
</svg>
